assets/svgs/i-add-friend.svg

<svg xmlns="http://www.w3.org/2000/svg" xmlns:xlink="http://www.w3.org/1999/xlink" fill="none" version="1.1" width="19" height="24" viewBox="0 0 19 24"><g><g><path d="M15,24Q15.19651,24,15.39207,23.98074Q15.58763,23.96148,15.78036,23.92314Q15.97309,23.8848,16.16114,23.827759999999998Q16.34918,23.77072,16.53073,23.695520000000002Q16.71228,23.62032,16.88559,23.52768Q17.058889999999998,23.43505,17.222279999999998,23.325879999999998Q17.38567,23.2167,17.53757,23.09204Q17.68948,22.96738,17.82843,22.82843Q17.96738,22.68948,18.09204,22.53757Q18.2167,22.38567,18.325879999999998,22.222279999999998Q18.43505,22.058889999999998,18.52768,21.88559Q18.62032,21.71228,18.695520000000002,21.53073Q18.77072,21.34918,18.827759999999998,21.16114Q18.8848,20.97309,18.92314,20.78036Q18.96148,20.58763,18.98074,20.39207Q19,20.19651,19,20Q19,19.80349,18.98074,19.60793Q18.96148,19.41237,18.92314,19.21964Q18.8848,19.02691,18.827759999999998,18.83886Q18.77072,18.65082,18.695520000000002,18.46927Q18.62032,18.28772,18.52768,18.11441Q18.43505,17.94111,18.325879999999998,17.77772Q18.2167,17.61433,18.09204,17.46243Q17.96738,17.31052,17.82843,17.17157Q17.68948,17.03262,17.53757,16.907958Q17.38567,16.783295,17.222279999999998,16.674121Q17.058889999999998,16.564948,16.88559,16.472315Q16.71228,16.379682,16.53073,16.304482Q16.34918,16.229282,16.16114,16.172239Q15.97309,16.115196,15.78036,16.0768589Q15.58763,16.0385222,15.39207,16.0192611Q15.19651,16,15,16Q14.80349,16,14.60793,16.0192611Q14.41237,16.0385222,14.21964,16.0768589Q14.02691,16.115196,13.83886,16.172239Q13.65082,16.229282,13.46927,16.304482Q13.28772,16.379682,13.11441,16.472315Q12.94111,16.564948,12.77772,16.674121Q12.61433,16.783295,12.46243,16.907958Q12.31052,17.03262,12.17157,17.17157Q12.03262,17.31052,11.907958,17.46243Q11.783295,17.61433,11.674121,17.77772Q11.564948,17.94111,11.472315,18.11441Q11.379682,18.28772,11.304482,18.46927Q11.229282,18.65082,11.172239,18.83886Q11.115196,19.02691,11.0768589,19.21964Q11.0385222,19.41237,11.0192611,19.60793Q11,19.80349,11,20Q11,20.19651,11.0192611,20.39207Q11.0385222,20.58763,11.0768589,20.78036Q11.115196,20.97309,11.172239,21.16114Q11.229282,21.34918,11.304482,21.53073Q11.379682,21.71228,11.472315,21.88559Q11.564948,22.058889999999998,11.674121,22.222279999999998Q11.783295,22.38567,11.907958,22.53757Q12.03262,22.68948,12.17157,22.82843Q12.31052,22.96738,12.46243,23.09204Q12.61433,23.2167,12.77772,23.325879999999998Q12.94111,23.43505,13.11441,23.52768Q13.28772,23.62032,13.46927,23.695520000000002Q13.65082,23.77072,13.83886,23.827759999999998Q14.02691,23.8848,14.21964,23.92314Q14.41237,23.96148,14.60793,23.98074Q14.80349,24,15,24ZM16.94927,20.759520000000002L16.94927,19.24053L15.7594,19.24053L15.7594,18.05066L14.24041,18.05066L14.24041,19.24053L13.05054,19.24053L13.05054,20.759520000000002L14.24041,20.759520000000002L14.24041,21.94939L15.7594,21.94939L15.7594,20.759520000000002L16.94927,20.759520000000002Z" fill-rule="evenodd" fill="#727C8E" fill-opacity="1"/></g><g><path d="M11.506,16.7647C12.4676,15.7951,13.7461,15.2609,15.1063,15.2609C15.409,15.2609,15.7079,15.2876,16,15.3395C15.5079,12.4569,13.5047,10.089,10.8451,9.09762C12.1459,8.19882,13.0009,6.69028,13.0009,4.98376C13.0009,2.23567,10.7838,0,8.05839,0C5.33303,0,3.11585,2.23567,3.11585,4.98376C3.11585,6.69009,3.97108,8.19882,5.27172,9.09762C2.19748,10.2437,0,13.2288,0,16.722C0,16.722,0,20,0,20C0,20,10.0294,20,10.0294,20C10.1212,18.7774,10.6372,17.6407,11.506,16.7647C11.506,16.7647,11.506,16.7647,11.506,16.7647Z" fill="#727C8E" fill-opacity="1"/></g></g></svg>

<svg fill="none" height="24" viewBox="0 0 19 24" width="19" xmlns="http://www.w3.org/2000/svg"><g fill="#727c8e"><path clip-rule="evenodd" d="m15 24c-2.2091 0-4-1.7909-4-4s1.7909-4 4-4 4 1.7909 4 4-1.7909 4-4 4zm.7595-3.2405h1.1899v-1.519h-1.1899v-1.1899h-1.519v1.1899h-1.1899v1.519h1.1899v1.1899h1.519z" fill-rule="evenodd"/><path d="m11.506 16.7647c.9616-.9696 2.2401-1.5038 3.6003-1.5038.3027 0 .6016.0267.8937.0786-.4921-2.8826-2.4953-5.2505-5.1549-6.24188 1.3008-.8988 2.1558-2.40734 2.1558-4.11386 0-2.74809-2.2171-4.98376-4.94251-4.98376-2.72536 0-4.94254 2.23567-4.94254 4.98376 0 1.70633.85523 3.21506 2.15587 4.11386-3.07424 1.14608-5.27172 4.13118-5.27172 7.62438v3.278h10.0294c.0918-1.2226.6078-2.3593 1.4766-3.2353z"/></g></svg>
